images/feed.svg

<?xml version="1.0" encoding="UTF-8" standalone="no"?>
<!-- Created with Inkscape (http://www.inkscape.org/) -->

<svg
	 xmlns:dc="http://purl.org/dc/elements/1.1/"
	 xmlns:cc="http://creativecommons.org/ns#"
	 xmlns:rdf="http://www.w3.org/1999/02/22-rdf-syntax-ns#"
	 xmlns:svg="http://www.w3.org/2000/svg"
	 xmlns="http://www.w3.org/2000/svg"
	 xmlns:xlink="http://www.w3.org/1999/xlink"
	 xmlns:sodipodi="http://sodipodi.sourceforge.net/DTD/sodipodi-0.dtd"
	 xmlns:inkscape="http://www.inkscape.org/namespaces/inkscape"
	 width="256"
	 height="256"
	 id="svg2"
	 sodipodi:version="0.32"
	 inkscape:version="0.47 r22583"
	 sodipodi:docname="rss-feed.svg"
	 version="1.0"
	 inkscape:output_extension="org.inkscape.output.svg.inkscape">
	<defs
		 id="defs4">
		<linearGradient
			 inkscape:collect="always"
			 id="linearGradient2555">
			<stop
				 style="stop-color: rgb(255, 255, 255); stop-opacity: 1;"
				 offset="0"
				 id="stop2557" />
			<stop
				 style="stop-color: rgb(255, 255, 255); stop-opacity: 0;"
				 offset="1"
				 id="stop2559" />
		</linearGradient>
		<linearGradient
			 inkscape:collect="always"
			 xlink:href="#linearGradient2555"
			 id="linearGradient2449"
			 gradientUnits="userSpaceOnUse"
			 gradientTransform="matrix(-0.5914583,0,0,0.5914584,210.0216,142.2324)"
			 x1="-344.15295"
			 y1="274.711"
			 x2="-395.84943"
			 y2="425.39993" />
	</defs>
	<sodipodi:namedview
		 id="base"
		 pagecolor="#ffffff"
		 bordercolor="#666666"
		 borderopacity="1.0"
		 inkscape:pageopacity="0.0"
		 inkscape:pageshadow="2"
		 inkscape:zoom="0.35"
		 inkscape:cx="430.42472"
		 inkscape:cy="131.48311"
		 inkscape:document-units="px"
		 inkscape:current-layer="layer1"
		 inkscape:window-width="782"
		 inkscape:window-height="674"
		 inkscape:window-x="1"
		 inkscape:window-y="281"
		 showgrid="false"
		 inkscape:window-maximized="0" />
	<metadata
		 id="metadata7">
		<rdf:RDF>
			<cc:Work
				 rdf:about="">
				<dc:format>image/svg+xml</dc:format>
				<dc:type
					 rdf:resource="http://purl.org/dc/dcmitype/StillImage" />
				<dc:title />
				<dc:creator>
					<cc:Agent>
						<dc:title />
					</cc:Agent>
				</dc:creator>
				<dc:subject>
					<rdf:Bag />
				</dc:subject>
				<cc:license
					 rdf:resource="http://creativecommons.org/licenses/publicdomain/" />
				<dc:description />
				<dc:contributor>
					<cc:Agent>
						<dc:title />
					</cc:Agent>
				</dc:contributor>
			</cc:Work>
			<cc:License
				 rdf:about="http://creativecommons.org/licenses/publicdomain/">
				<cc:permits
					 rdf:resource="http://creativecommons.org/ns#Reproduction" />
				<cc:permits
					 rdf:resource="http://creativecommons.org/ns#Distribution" />
				<cc:permits
					 rdf:resource="http://creativecommons.org/ns#DerivativeWorks" />
			</cc:License>
		</rdf:RDF>
	</metadata>
	<g
		 inkscape:label="Layer 1"
		 inkscape:groupmode="layer"
		 id="layer1"
		 transform="translate(-373.642,-318.344)">
		<rect
			 inkscape:export-ydpi="7.7063322"
			 inkscape:export-xdpi="7.7063322"
			 inkscape:export-filename="C:\Documents and Settings\Molumen\Desktop\path3511111.png"
			 transform="scale(-1,1)"
			 ry="35.487503"
			 rx="35.487503"
			 y="328.84921"
			 x="-619.14587"
			 height="234.98955"
			 width="235.00784"
			 id="rect1942"
			 style="fill:#e15a00;fill-opacity:1;fill-rule:evenodd;stroke:none;stroke-width:0.87500000000000000;stroke-linecap:square;stroke-linejoin:miter;stroke-miterlimit:4;stroke-dasharray:0.87500000000000000, 1.75000000000000000;stroke-dashoffset:0;stroke-opacity:1" />
		<path
			 inkscape:export-ydpi="7.7063322"
			 inkscape:export-xdpi="7.7063322"
			 inkscape:export-filename="C:\Documents and Settings\Molumen\Desktop\path3511111.png"
			 sodipodi:nodetypes="ccccsssc"
			 id="path1950"
			 d="M 557.05665,338.89518 L 446.22721,338.89518 C 416.89033,338.89518 393.27256,362.70492 393.27256,392.28025 L 393.27256,500.40761 C 394.22216,523.49366 397.87485,508.89915 404.82758,483.3329 C 412.90814,453.61975 439.22406,427.65003 471.27219,408.1872 C 495.73352,393.33195 523.11328,383.84595 572.95174,382.94353 C 601.21656,382.43177 598.72124,346.26062 557.05665,338.89518 z"
			 style="opacity:0.60747664;fill:url(#linearGradient2449);fill-opacity:1;fill-rule:evenodd;stroke:none;stroke-width:0.87500000000000000;stroke-linecap:square;stroke-linejoin:miter;stroke-miterlimit:4;stroke-dasharray:0.87500000000000000, 1.75000000000000000;stroke-dashoffset:0;stroke-opacity:1" />
		<path
			 sodipodi:type="arc"
			 style="opacity:1;fill:#ffffff;fill-opacity:1;fill-rule:nonzero;stroke:none;stroke-width:12;stroke-linecap:round;stroke-miterlimit:4;stroke-dasharray:none;stroke-opacity:1"
			 id="path5270"
			 sodipodi:cx="360.35715"
			 sodipodi:cy="200.64285"
			 sodipodi:rx="24.642859"
			 sodipodi:ry="23.928572"
			 d="m 385.00001,200.64285 c 0,13.21539 -11.03299,23.92857 -24.64286,23.92857 -13.60988,0 -24.64286,-10.71318 -24.64286,-23.92857 0,-13.21538 11.03298,-23.92857 24.64286,-23.92857 13.60987,0 24.64286,10.71319 24.64286,23.92857 z"
			 transform="matrix(0.8699574,0,0,0.8699574,135.15631,330.52863)" />
		<path
			 style="fill:#ffffff;fill-opacity:1;fill-rule:evenodd;stroke:none;stroke-width:1px;stroke-linecap:butt;stroke-linejoin:miter;stroke-opacity:1"
			 d="M 427.83482,455.05681 L 427.76203,424.78365 C 492.4681,428.1591 528.38081,474.45682 529.26224,526.72326 L 498.944,526.72326 C 498.44099,480.78249 467.20335,456.72804 427.83482,455.05681 z"
			 id="path5805"
			 sodipodi:nodetypes="ccccc" />
		<path
			 style="fill:#ffffff;fill-opacity:1;fill-rule:evenodd;stroke:none;stroke-width:1px;stroke-linecap:butt;stroke-linejoin:miter;stroke-opacity:1"
			 d="M 428.20143,404.57149 L 427.32264,373.81385 C 526.75104,378.43011 580.00028,450.58197 580.67143,526.72326 L 549.4744,526.28386 C 550.83932,477.58037 514.80871,406.01731 428.20143,404.57149 z"
			 id="path5807"
			 sodipodi:nodetypes="ccccc" />
	</g>
</svg>

<?xml version="1.0" encoding="UTF-8"?>
<svg width="235.01" height="234.99" version="1.0" xmlns="http://www.w3.org/2000/svg" xmlns:xlink="http://www.w3.org/1999/xlink">
 <defs>
  <linearGradient id="linearGradient2449" x1="-344.15" x2="-395.85" y1="274.71" y2="425.4" gradientTransform="matrix(-.59146 0 0 .59146 210.02 142.23)" gradientUnits="userSpaceOnUse">
   <stop stop-color="#fff" offset="0"/>
   <stop stop-color="#fff" stop-opacity="0" offset="1"/>
  </linearGradient>
 </defs>
 <g transform="translate(-384.14 -328.85)">
  <rect transform="scale(-1,1)" x="-619.15" y="328.85" width="235.01" height="234.99" rx="35.488" ry="35.488" fill="#e15a00" fill-rule="evenodd"/>
  <path d="m557.06 338.9h-110.83c-29.337 0-52.955 23.81-52.955 53.385v108.13c0.9496 23.086 4.6023 8.4915 11.555-17.075 8.0806-29.713 34.396-55.683 66.445-75.146 24.461-14.855 51.841-24.341 101.68-25.244 28.265-0.51176 25.77-36.683-15.895-44.048z" fill="url(#linearGradient2449)" fill-rule="evenodd" opacity=".60748"/>
  <g fill="#fff">
   <ellipse transform="matrix(.86996 0 0 .86996 135.16 330.53)" cx="360.36" cy="200.64" rx="24.643" ry="23.929"/>
   <path d="m427.83 455.06-0.0728-30.273c64.706 3.3754 100.62 49.673 101.5 101.94h-30.318c-0.50301-45.941-31.741-69.995-71.109-71.666z" fill-rule="evenodd"/>
   <path d="m428.2 404.57-0.87879-30.758c99.428 4.6163 152.68 76.768 153.35 152.91l-31.197-0.4394c1.3649-48.703-34.666-120.27-121.27-121.71z" fill-rule="evenodd"/>
  </g>
 </g>
</svg>
